**kern
*staff1
*I"Piano
*clefG2
*k[]
*M4/4
8g/L
8a/J
=1
4cc\
4ee\
8r
8g/L
8a/
8cc/J
=2
4.dd\
8ee\
8cc\L
8dd\
8ee\
8ff\J
=3
4gg\
8aa\L
8gg\J
4ee\
8ff#\L
8ee\J
=4
4.a/
8b\
4a/
8g/L
8a/J
=5
4cc\
4ee\
8r
8g/L
8a/
8cc/J
=6
4.dd\
8bb\
8aa\L
8ee\
8cc\
8b\J
=7
4a/
8g/L
8a/J
4b\
8dd\L
8b\J
=8
!!pagebreak:original
4a/
8e/L
8f/J
2A/
==
*-
